!!!OTL: AF AF EHS HIAERTN
!!!ARE: Europa, Mitteleuropa, Unter - Oesterreich
!!!SCT: E1944
!!!YEM: Copyright 1995, estate of Helmut Schaffrath.
**kern
*ICvox
*Ivox
*M3/4
*k[f#c#g#]
*A:
{4e
=1
2a
4b
=2
4a
8cc#
8b}
{8a
8g#
=3
4f#
4b
4f#
=4
2a}
{4e
=5
2a
4b
=6
4a
8cc#
8b}
{8a
8g#
=7
4f#
4b
4f#
=8
2a
4r}
=9
{4cc#
8cc#
8b
8a
8g#
=10
2.f#}
=11
{4b
8b
8a
8g#
8f#
=12
2e}
{4e
=13
4a
4a
4b
=14
4a
8cc#
8b}
{8a
8g#
=15
4f#
4b
4g#
=16
2a}
==
!!!AGN: geistlich, Fest - Lied, Weihnachten
!!!ONB: ESAC (Essen Associative Code) Database: ERK3
!!!AMT: simple triple
!!!AIN: vox
!!!EED: Helmut Schaffrath
!!!EEV: 1.0
*-
